modules/shop/images/special_offers.svg

<svg enable-background="new 0 0 48 24" viewBox="0 0 48 24" xmlns="http://www.w3.org/2000/svg"><defs><symbol viewBox="-6 -5 12 11.3"><path d="m2-2.7c0-.2.2-.3.5-.3h1c .3 0 .5.1.5.3v4.7h1.5l-2.5 4.3-2.5-4.3h1.5z" fill="#fff"/></symbol></defs><path d="m45 18.8l3-3.5-3-.7v-7.8l3-5.8h-9l-2 3.9-1 .2-4.3.8-.7-2-6-1.7 1 5.1v11.9l7 3.9 3.2-1.1-.2 2 4.6-1.9 4.6 1.9-.4-4.7.2-.1z" fill="#939393"/><path d="m44 5.7l-8-1.8-10.7 2 6.7 4.7z" fill="#ac382e"/><path d="m27.5 6.3l8.5-1.7 6.5 1.6-10.4 3.3z" fill="#939393"/><g fill="#ac382e"><path d="m35 4.1v5.3l2-.9v-4.4l-1-.2z"/><path d="m32 22l-7-3.9v-12.4l7 3.9z"/></g><path d="m26 17.6v-10.2l6 2.9v10.6z" fill="#fff"/><path d="m32 22l12-3.9v-12.4l-12 3.9z" fill="#ac382e"/><path d="m33 10.3l10-3.3v10.5l-10 3.2z" fill="#fff"/><path d="m25.1 7l-1.1-5.8 6 1.6 2.7 7.8z" fill="#ac382e"/><path d="m25.8 6.5l-.9-4.3 4.5 1.3 2 5.6z" fill="#fff"/><path d="m35.6 4.7l2.4-4.7h9l-3.3 6.4z" fill="#ac382e"/><g fill="#fff"><path d="m37.1 4l1.5-3h6.8l-2.2 4.3z"/><path d="m39.6 8.9l2.6 4.2 4.8 1.2-3.2 3.7.4 4.9-4.6-1.9-4.6 2 .4-4.9-1.9-2.2c-.6-.7-.3-1.8.7-2.1l2.8-.7z"/></g><path d="m39.6 20l-3.4 1.4.2-3.7-2.4-2.8 3.7-.9 1.9-3.2 2 3.2 3.6.9-2.4 2.8.3 3.7z" fill="#e74c3c"/><path d="m21 18.8l3-3.5-3-.7v-7.8l3-5.8h-9l-2 3.9-1 .2-4.3.8-.7-2-6-1.7 1 5.1v11.9l7 3.9 3.2-1.1-.2 2 4.6-1.9 4.6 1.9-.4-4.7.2-.1z" fill="#939393"/><path d="m20 5.7l-8-1.8-10.7 2 6.7 4.7z" fill="#5a5a5a"/><path d="m3.5 6.3l8.5-1.7 6.5 1.6-10.4 3.3z" fill="#939393"/><g fill="#5a5a5a"><path d="m11 4.1v5.3l2-.9v-4.4l-1-.2z"/><path d="m8 22l-7-3.9v-12.4l7 3.9z"/></g><path d="m2 17.6v-10.2l6 2.9v10.6z" fill="#d6d6d6"/><path d="m8 22l12-3.9v-12.4l-12 3.9z" fill="#5a5a5a"/><path d="m9 10.3l10-3.3v10.5l-10 3.2z" fill="#d6d6d6"/><path d="m1.1 7l-1.1-5.8 6 1.6 2.7 7.8z" fill="#5a5a5a"/><path d="m1.8 6.5l-.9-4.3 4.5 1.3 2 5.6z" fill="#d6d6d6"/><path d="m11.6 4.7l2.4-4.7h9l-3.3 6.4z" fill="#5a5a5a"/><path d="m13.1 4l1.5-3h6.8l-2.2 4.3z" fill="#d6d6d6"/><path d="m15.6 8.9l2.6 4.2 4.8 1.2-3.2 3.7.4 4.9-4.6-1.9-4.6 2 .4-4.9-2.7-3.1c-.2-.3-.1-.7.3-.8l4-1z" fill="#5a5a5a"/><path d="m15.6 20l-3.4 1.4.2-3.7-2.4-2.8 3.7-.9 1.9-3.2 2 3.2 3.6.9-2.4 2.8.3 3.7z" fill="#fff"/></svg>

<svg xmlns="http://www.w3.org/2000/svg" viewBox="0 0 48 24" enable-background="new 0 0 48 24"><symbol viewBox="-6 -5 12 11.3"><path fill="#fff" d="M2-2.7C2-2.9,2.2-3,2.5-3h1C3.8-3,4-2.9,4-2.7V2h1.5L3,6.3L0.5,2H2V-2.7z"/></symbol><path fill="#939393" d="m45 18.8l3-3.5-3-.7v-7.8l3-5.8h-9l-2 3.9-1 .2-4.3.8-.7-2-6-1.7 1 5.1v11.9l7 3.9 3.2-1.1-.2 2 4.6-1.9 4.6 1.9-.4-4.7.2-.1z"/><path fill="#ac382e" d="m44 5.7l-8-1.8-10.7 2 6.7 4.7z"/><path fill="#939393" d="m27.5 6.3l8.5-1.7 6.5 1.6-10.4 3.3z"/><g fill="#ac382e"><path d="m35 4.1v5.3l2-.9v-4.4l-1-.2z"/><path d="m32 22l-7-3.9v-12.4l7 3.9z"/></g><path fill="#fff" d="m26 17.6v-10.2l6 2.9v10.6z"/><path fill="#ac382e" d="m32 22l12-3.9v-12.4l-12 3.9z"/><path fill="#fff" d="m33 10.3l10-3.3v10.5l-10 3.2z"/><path fill="#ac382e" d="m25.1 7l-1.1-5.8 6 1.6 2.7 7.8z"/><path fill="#fff" d="m25.8 6.5l-.9-4.3 4.5 1.3 2 5.6z"/><path fill="#ac382e" d="m35.6 4.7l2.4-4.7h9l-3.3 6.4z"/><g fill="#fff"><path d="m37.1 4l1.5-3h6.8l-2.2 4.3z"/><path d="m39.6 8.9l2.6 4.2 4.8 1.2-3.2 3.7.4 4.9-4.6-1.9-4.6 2 .4-4.9-1.9-2.2c-.6-.7-.3-1.8.7-2.1l2.8-.7 2.6-4.2"/></g><path fill="#e74c3c" d="m39.6 20l-3.4 1.4.2-3.7-2.4-2.8 3.7-.9 1.9-3.2 2 3.2 3.6.9-2.4 2.8.3 3.7z"/><path fill="#939393" d="m21 18.8l3-3.5-3-.7v-7.8l3-5.8h-9l-2 3.9-1 .2-4.3.8-.7-2-6-1.7 1 5.1v11.9l7 3.9 3.2-1.1-.2 2 4.6-1.9 4.6 1.9-.4-4.7.2-.1z"/><path fill="#5a5a5a" d="m20 5.7l-8-1.8-10.7 2 6.7 4.7z"/><path fill="#939393" d="M3.5 6.3 12 4.6 18.5 6.2 8.1 9.5z"/><g fill="#5a5a5a"><path d="m11 4.1v5.3l2-.9v-4.4l-1-.2z"/><path d="m8 22l-7-3.9v-12.4l7 3.9z"/></g><path fill="#d6d6d6" d="m2 17.6v-10.2l6 2.9v10.6z"/><path fill="#5a5a5a" d="m8 22l12-3.9v-12.4l-12 3.9z"/><path fill="#d6d6d6" d="m9 10.3l10-3.3v10.5l-10 3.2z"/><path fill="#5a5a5a" d="M1.1 7 0 1.2 6 2.8 8.7 10.6z"/><path fill="#d6d6d6" d="m1.8 6.5l-.9-4.3 4.5 1.3 2 5.6z"/><path fill="#5a5a5a" d="m11.6 4.7l2.4-4.7h9l-3.3 6.4z"/><path fill="#d6d6d6" d="m13.1 4l1.5-3h6.8l-2.2 4.3z"/><path fill="#5a5a5a" d="m15.6 8.9l2.6 4.2 4.8 1.2-3.2 3.7.4 4.9-4.6-1.9-4.6 2 .4-4.9-2.7-3.1c-.2-.3-.1-.7.3-.8l4-1 2.6-4.3"/><path fill="#fff" d="m15.6 20l-3.4 1.4.2-3.7-2.4-2.8 3.7-.9 1.9-3.2 2 3.2 3.6.9-2.4 2.8.3 3.7z"/></svg>
